static/cards/FrenchDeck/cyberwave/card_hearts_07.svg

<svg xmlns="http://www.w3.org/2000/svg" width="822" height="1122" fill="none" viewBox="0 0 822 1122"><rect width="822" height="1122" fill="#1a0033" rx="20"/><g fill="#b366ff" clip-path="url(#a)"><path d="M101.998 159q-.896 0-.896-.768 0-.64.512-1.536l42.112-78.464H92.141q-2.943 0-2.943-2.816v-.896q0-1.408.64-1.92.768-.64 2.303-.64h57.857q2.816 0 2.816 2.56 0 .896-.64 2.176a36 36 0 0 1-1.28 2.56l-42.24 78.976q-.256.512-.64.64-.257.128-.896.128zM120.798 218.497c-10.18-10.18-26.685-10.18-36.865 0s-10.18 26.685 0 36.865l33.179 33.179a5.213 5.213 0 0 0 7.373 0l33.179-33.179-.004-.003c9.814-10.207 9.692-26.436-.365-36.493s-26.287-10.179-36.493-.365zM712.002 959q.896 0 .896.768 0 .64-.512 1.536l-42.112 78.466h51.584c1.963 0 2.944.94 2.944 2.81v.9q0 1.41-.64 1.92c-.512.43-1.28.64-2.304.64h-57.856c-1.877 0-2.816-.85-2.816-2.56 0-.6.214-1.32.64-2.18.342-.76.768-1.62 1.28-2.56l42.24-78.972q.256-.512.64-.64.257-.128.896-.128zM693.202 899.503c10.18 10.18 26.685 10.18 36.865 0s10.18-26.685 0-36.865l-33.179-33.179a5.213 5.213 0 0 0-7.373 0l-33.179 33.179.004.003c-9.814 10.207-9.692 26.436.365 36.493s26.287 10.179 36.493.365z"/></g><path stroke="#b366ff" stroke-width="8" d="M377.261 545.326c8.618-8.618 22.59-8.619 31.209-.001l2.777 2.777 2.827-2.718c8.639-8.306 22.379-8.203 30.892.31 8.514 8.514 8.617 22.254.31 30.893l-.137.143-32.983 32.982a1.213 1.213 0 0 1-1.716.001l-33.179-33.179c-8.618-8.618-8.618-22.59 0-31.208ZM377.261 707.326c8.618-8.618 22.59-8.619 31.209-.001l2.777 2.777 2.827-2.718c8.639-8.306 22.379-8.203 30.892.31 8.514 8.514 8.617 22.254.31 30.893l-.137.143-32.983 32.982a1.213 1.213 0 0 1-1.716.001l-33.179-33.179c-8.618-8.618-8.618-22.59 0-31.208ZM545.261 545.326c8.618-8.618 22.59-8.619 31.209-.001l2.777 2.777 2.827-2.718c8.639-8.306 22.379-8.203 30.892.31 8.514 8.514 8.617 22.254.31 30.893l-.137.143-32.983 32.982a1.213 1.213 0 0 1-1.716.001l-33.179-33.179c-8.618-8.618-8.618-22.59 0-31.208ZM209.261 545.326c8.618-8.618 22.59-8.619 31.209-.001l2.777 2.777 2.827-2.718c8.639-8.306 22.379-8.203 30.892.31 8.514 8.514 8.617 22.254.31 30.893l-.137.143-32.983 32.982a1.213 1.213 0 0 1-1.716.001l-33.179-33.179c-8.618-8.618-8.618-22.59 0-31.208ZM545.261 383.326c8.618-8.618 22.59-8.619 31.209-.001l2.777 2.777 2.827-2.718c8.639-8.306 22.379-8.203 30.892.31 8.514 8.514 8.617 22.254.31 30.893l-.137.143-32.983 32.982a1.213 1.213 0 0 1-1.716.001l-33.179-33.179c-8.618-8.618-8.618-22.59 0-31.208ZM209.261 383.326c8.618-8.618 22.59-8.619 31.209-.001l2.777 2.777 2.827-2.718c8.639-8.306 22.379-8.203 30.892.31 8.514 8.514 8.617 22.254.31 30.893l-.137.143-32.983 32.982a1.213 1.213 0 0 1-1.716.001l-33.179-33.179c-8.618-8.618-8.618-22.59 0-31.208ZM377.261 383.326c8.618-8.618 22.59-8.619 31.209-.001l2.777 2.777 2.827-2.718c8.639-8.306 22.379-8.203 30.892.31 8.514 8.514 8.617 22.254.31 30.893l-.137.143-32.983 32.982a1.213 1.213 0 0 1-1.716.001l-33.179-33.179c-8.618-8.618-8.618-22.59 0-31.208Z"/><defs><clipPath id="a"><path fill="#fff" d="M46 48h722v1022H46z"/></clipPath></defs></svg>

<svg width="822" height="1122" viewBox="0 0 822 1122" fill="none" xmlns="http://www.w3.org/2000/svg">
<rect width="822" height="1122" rx="20" fill="#1A0033"/>
<g clip-path="url(#clip0_31_1469)">
<path d="M101.998 159C101.4 159 101.102 158.744 101.102 158.232C101.102 157.805 101.272 157.293 101.614 156.696L143.726 78.232H92.1415C90.1788 78.232 89.1975 77.2933 89.1975 75.416V74.52C89.1975 73.5813 89.4108 72.9413 89.8375 72.6C90.3495 72.1733 91.1175 71.96 92.1415 71.96H149.998C151.875 71.96 152.814 72.8133 152.814 74.52C152.814 75.1173 152.6 75.8427 152.174 76.696C151.832 77.464 151.406 78.3173 150.894 79.256L108.654 158.232C108.483 158.573 108.27 158.787 108.014 158.872C107.843 158.957 107.544 159 107.118 159H101.998Z" fill="#B366FF"/>
<path d="M120.798 218.497C110.618 208.317 94.1128 208.317 83.9327 218.497C73.7526 228.677 73.7526 245.182 83.9327 255.362L117.112 288.541C119.148 290.577 122.449 290.577 124.485 288.541L157.664 255.362L157.66 255.359C167.474 245.152 167.352 228.923 157.295 218.866C147.238 208.809 131.008 208.687 120.802 218.501L120.798 218.497Z" fill="#B366FF"/>
<path d="M712.002 959C712.6 959 712.898 959.256 712.898 959.768C712.898 960.195 712.728 960.707 712.386 961.304L670.274 1039.77H721.858C723.821 1039.77 724.802 1040.71 724.802 1042.58V1043.48C724.802 1044.42 724.589 1045.06 724.162 1045.4C723.65 1045.83 722.882 1046.04 721.858 1046.04H664.002C662.125 1046.04 661.186 1045.19 661.186 1043.48C661.186 1042.88 661.4 1042.16 661.826 1041.3C662.168 1040.54 662.594 1039.68 663.106 1038.74L705.346 959.768C705.517 959.427 705.73 959.213 705.986 959.128C706.157 959.043 706.456 959 706.882 959H712.002Z" fill="#B366FF"/>
<path d="M693.202 899.503C703.382 909.683 719.887 909.683 730.067 899.503C740.247 889.323 740.247 872.818 730.067 862.638L696.888 829.459C694.852 827.423 691.551 827.423 689.515 829.459L656.336 862.638L656.34 862.641C646.526 872.848 646.648 889.077 656.705 899.134C666.762 909.191 682.992 909.313 693.198 899.499L693.202 899.503Z" fill="#B366FF"/>
</g>
<path d="M377.261 545.326C385.879 536.708 399.851 536.707 408.47 545.325L411.247 548.102L414.074 545.384C422.713 537.078 436.453 537.181 444.966 545.694C453.48 554.208 453.583 567.948 445.276 576.587L445.139 576.73L412.156 609.712C411.682 610.186 410.914 610.187 410.44 609.713L377.261 576.534C368.643 567.916 368.643 553.944 377.261 545.326Z" stroke="#B366FF" stroke-width="8"/>
<path d="M377.261 707.326C385.879 698.708 399.851 698.707 408.47 707.325L411.247 710.102L414.074 707.384C422.713 699.078 436.453 699.181 444.966 707.694C453.48 716.208 453.583 729.948 445.276 738.587L445.139 738.73L412.156 771.712C411.682 772.186 410.914 772.187 410.44 771.713L377.261 738.534C368.643 729.916 368.643 715.944 377.261 707.326Z" stroke="#B366FF" stroke-width="8"/>
<path d="M545.261 545.326C553.879 536.708 567.851 536.707 576.47 545.325L579.247 548.102L582.074 545.384C590.713 537.078 604.453 537.181 612.966 545.694C621.48 554.208 621.583 567.948 613.276 576.587L613.139 576.73L580.156 609.712C579.682 610.186 578.914 610.187 578.44 609.713L545.261 576.534C536.643 567.916 536.643 553.944 545.261 545.326Z" stroke="#B366FF" stroke-width="8"/>
<path d="M209.261 545.326C217.879 536.708 231.851 536.707 240.47 545.325L243.247 548.102L246.074 545.384C254.713 537.078 268.453 537.181 276.966 545.694C285.48 554.208 285.583 567.948 277.276 576.587L277.139 576.73L244.156 609.712C243.682 610.186 242.914 610.187 242.44 609.713L209.261 576.534C200.643 567.916 200.643 553.944 209.261 545.326Z" stroke="#B366FF" stroke-width="8"/>
<path d="M545.261 383.326C553.879 374.708 567.851 374.707 576.47 383.325L579.247 386.102L582.074 383.384C590.713 375.078 604.453 375.181 612.966 383.694C621.48 392.208 621.583 405.948 613.276 414.587L613.139 414.73L580.156 447.712C579.682 448.186 578.914 448.187 578.44 447.713L545.261 414.534C536.643 405.916 536.643 391.944 545.261 383.326Z" stroke="#B366FF" stroke-width="8"/>
<path d="M209.261 383.326C217.879 374.708 231.851 374.707 240.47 383.325L243.247 386.102L246.074 383.384C254.713 375.078 268.453 375.181 276.966 383.694C285.48 392.208 285.583 405.948 277.276 414.587L277.139 414.73L244.156 447.712C243.682 448.186 242.914 448.187 242.44 447.713L209.261 414.534C200.643 405.916 200.643 391.944 209.261 383.326Z" stroke="#B366FF" stroke-width="8"/>
<path d="M377.261 383.326C385.879 374.708 399.851 374.707 408.47 383.325L411.247 386.102L414.074 383.384C422.713 375.078 436.453 375.181 444.966 383.694C453.48 392.208 453.583 405.948 445.276 414.587L445.139 414.73L412.156 447.712C411.682 448.186 410.914 448.187 410.44 447.713L377.261 414.534C368.643 405.916 368.643 391.944 377.261 383.326Z" stroke="#B366FF" stroke-width="8"/>
<defs>
<clipPath id="clip0_31_1469">
<rect width="722" height="1022" fill="white" transform="translate(46 48)"/>
</clipPath>
</defs>
</svg>
